X:240
T:Ferdinand the Bull
C:Sean Watkins 
N:From the Sean Watkins solo CD "Let It Fall" Transcribed by Steve Terregino
L:1/8
Q:1/4=265
M:6/8
K:A
z6 | FEF BAE | FAB FAB | cBc feB | cef azg | DzA gzA | D3 gfg | efc efc | efe cBA | 
FEF BAE | FAB FAB | cBc feB | cef az=g | =G3 =gzg | =GzG [fB]zf | =G,zG, eze | 
=G,zG, dzA | FEF BAE | FAB FAB | cBc feB | cef gza | DzA azA | D3 aDA | age dcd | 
efA fDD | f6 | agf edc | fed cBA | GAB cde | fed cBG | A3 B3 | G3 B3 | A3 G3 | 
F3 E3 | EFz z3 | z2E FAF | BFA Bce | zcf zef | ece cBc | dDD dDD | dDD cDD | BzD AAA | 
EFA dzc | zAF c[gc]A | GBA GAG | FAG FEF | =GAB d=gz | zfz ezd | ced cBd | cBA FEA | 
FEF BAE | FAB FAB | cBc feB | cef gza | DzA aAA | DzA aDA | age dcd | efA fDD | 
f6 | agf edc | fed cBA | GAB cde | fed cBG | A3 B3 | G3 B3 | A3 G3 | F3 E3 | 
M:4/4
gf eB ef ga | fc GA Bc ed | zd fa ba ge | BA Ge FE AB | gf eB ef ga | fc GA Bc ed | 
zD Dd zc DB | [eA]B e[eB] ze ee | fg z=f ga bg | 
M:6/8
a3 g3 | f3 eze | Bcz BzA | F2z2[e2A2D2] | 
 

